!!!COM: Robert Franz
!!!CNT: Deutscher
!!!TXO: Deutsche 
!!!OTL: "Mein Schatz ist auf der Wanderschaft"
!!!OPS: Op. 40
!!!ONM: No. 1
!!!ONB: Original key: Eb major
!!!LYR: W. Osterwald
!!!ENC: Brian Bice
!!!YOR: Vocal Album, G. Schirmer, Inc., 1907
!!!ODT: 1845/
!!NB: Vocal melody and text only encoded.
**kern	**silbe
*clefG2	*
*k[]	*
*M2/4	*
=2	=2
4r	.
8r	.
{8g	{Mein
=3	=3
8cc	Schatz
8g	ist
8e	auf
8f	der
=4	=4
8g	Wan-
8e	-der-
8c	-schaft
8d	so
=5	=5
4e	lan-
8g}	-ge,}
8r	.
=6	=6
4r	.
8r	.
{8g	{Gott
=7	=7
8cc	weiss,
8dd	wo-
8ee	-her
8cc	er
=8	=8
8a	nimmt
8b	die
8cc	Kraft
8e	zum
=9	=9
4g	Gan-
8b}	-ge}
8r	.
=10	=10
4r	.
8r	.
{8a	{'swa2r'
=11	=11
8g	bes-
8b	-ser,
8dd	wollt'
8cc	er
=12	=12
8b	end-
8a	-lich
8g	nun
8f	sein'
=13	=13
8e	al-
8g	-ler-
8b	-letz-
8a	-te
=14	=14
8g	Rei-
8f	-se
8e}	thun}
{8d	{und
=15	=15
8c	keh-
8c	-ren
(16e	mir
16d)	|
8c	zum
=16	=16
4cc	Glu2-
8a	-cke
8f	zu-
=17	=17
4e	-ru2-
8g}	-cke.}
8r	.
=19	=19
4r	.
8r	.
{8g	{Mein'
=20	=20
8cc	Mut-
8g	-ter
8e	hat
8f	den
=21	=21
8g	gan-
8e	-zen
8c	Tag
8d	zu
=22	=22
4e	schel-
8g}	-ten,}
8r	.
=23	=23
4r	.
8r	.
{8g	{zu
=24	=24
8cc	Dank
8dd	mach'
8ee	ich
8cc	ihr
=25	=25
8a	mei-
8b	-ne
8cc	Sach'
(16b	nur
16a)	|
=26	=26
4g	sel-
8b}	-ten;}
8r	.
=27	=27
4r	.
8r	.
{8a	{ach
=28	=28
8g	Gott!
8b	ich
8dd	tha2t'
8cc	ja
=29	=29
8b	Al-
8a	-les
8g	gern,
8f	wa2r'
=30	=30
8e	nur
8g	mein
8b	Schatz
8a	nicht
=31	=31
8g	gar
8f	so
8e}	fern,}
{8d	{dass
=32	=32
8c	ich
8c	an
(16e	ihn
16d)	|
8c	ohn'
=33	=33
4cc	Kra2n-
8a	-ken
8f	ko2nnt'
=34	=34
4e	den-
8g}	-ken.}
8r	.
=36	=36
4r	.
8r	.
{8g	{Ihr
=37	=37
8cc	spre-
8g	-chet
8e	wohl:
8f	"Ich
=38	=38
8g	such'
8e	dir
8c	aud
8d	ein'n
=39	=39
4e	an-
8g}	-dern"}
8r	.
=40	=40
4r	.
8r	.
{8g	{Frau
=41	=41
8cc	Mut-
8dd	-ter,
8ee	da
8cc	wird
=42	=42
8a	nie
8b	was
8cc	draus!
8e	Vom
=43	=43
4g	Wan-
8b}	-dern}
{8a	{wird
=44	=44
8g	er
8b	zur
8dd	rech-
8cc	-ten
=45	=45
8b	Stun-
8a	-de
8g	ruh'n
8f	und
=46	=46
8e	bald
8g	sein'
8b	letz-
8a	-te
=47	=47
8g	Rei-
8f	-se
8e}	thun,}
{8d	{und
=48	=48
8c	keh-
8c	-ren
(16e	mir
16d)	|
8c	zum
=49	=49
4cc	Glu2-
8a	-cke
8f	zu-
=50	=50
4e	-ru2-
8g}	-cke!}
8r	.
*-	*-
